X:0607
M:C
L:1/8
Q:1/4=120
K:G
b/a/|(g/a/b/a/) gd e<gg>a|g/a/b/a/ gd        e<aa>b |(g/a/b/a/) gd e<gd>B|c(d/e/) A(B/c/) B(GG)
b/a/|(g/a/b/a/) gd e<gg>a|g/a/b/a/ ge        f<aa>c'|b<c'a<b       g<ae<g|B(c/d/) A(B/c/) B(GG)|]

